X: 252
T: The Royal Wedding
%O: 1795
%R: jig
Z: 2018 John Chambers <jc:trillian.mit.edu>
B: Wm. Campbell "10th Book of New and Favorite Country Dances, Strathspey Reels" 1795 p.25
F: https://archive.org/details/campbellstenthbo00camp
M: 6/8
L: 1/8
K: D
% - - - - - - - - - - - - - - - - - - - - - - - - -
% Voice 1 arranged for small-scale proofreading
V: 1 staves=2
|:\
dcd ABc | dcd ABc | dcB ABG | FDD D3 |\
A^GA EFG | A^GA EFG | A^GF EFD | CA,A, A,3 :|
|:\
EFE ECA, | FGF FDA, | GAG GEG | FAd c3 |\
dcd ABc | dcd ABc | dcB ABG | FDD D3 :|
% - - - - - - - - - - - - - - - - - - - - - - - - -
% Voice 1 preserves the original staff layout
V: 2 clef=bass middle=d
|:\
d2f a2g | f2d c2A | d2g f2a | d3 d3 |\
A3 e2d | c2A e2d | c2d e2E | A3 A3 :|
|:\
A3 A2c | d3 D3 | c3 A3 | d3 A3 |\
A2d cBA | d2f a2g | f2d A2a | d3 d3 :|
% - - - - - - - - - - - - - - - - - - - - - - - - -
%%begintext align
%% The 1st Lady turn the 2d Gent at the same time the 1st Gent: turn the
%% 2d Lady, turn your Partner, Lead down the middle up again, hands
%% four round, Swing corners and lead outsides.
%%endtext
% - - - - - - - - - - - - - - - - - - - - - - - - -

%%sep 1 1 500
%%sep 1 1 500

